public/transport.svg

<svg width="50" height="56" viewBox="0 0 50 56" fill="none" xmlns="http://www.w3.org/2000/svg">
<g clip-path="url(#clip0_11_1293)">
<path d="M47.6607 22.4358L46.5855 21.1435L42.8117 9.5965C42.1687 7.64607 40.5243 6.35376 38.6901 6.3418H11.7359C9.90176 6.3418 8.25731 7.64607 7.61429 9.5965L3.89321 20.9999L2.34364 22.6273C0.994351 23.9315 0.214294 25.8461 0.214294 27.8563V44.6803C0.224836 47.4324 2.19606 49.658 4.62056 49.658H7.40347C9.82797 49.658 11.7992 47.4324 11.8097 44.6803V42.2392H37.9522V44.6803C37.9627 47.4324 39.9339 49.658 42.3585 49.658H45.1414C47.5659 49.658 49.5371 47.4324 49.5476 44.6803V27.4136C49.5371 25.535 48.8624 23.7401 47.6607 22.4358ZM9.59606 10.4102C9.93338 9.39308 10.7872 8.73496 11.7359 8.73496H38.7006C39.6493 8.73496 40.5032 9.40504 40.8405 10.4102L44.1294 20.4615H41.6733C41.0935 15.9743 37.4146 12.8751 33.4616 13.5452C30.3097 14.0717 27.8325 16.8837 27.3687 20.4615H6.30717L9.59606 10.4102ZM39.5228 20.4615H29.4981C30.0778 17.3144 32.7975 15.3042 35.5698 15.9623C37.5516 16.4409 39.1012 18.1999 39.5228 20.4615ZM9.70147 44.6803C9.69093 46.1162 8.66842 47.2649 7.40347 47.2649H4.62056C3.3556 47.2649 2.3331 46.1162 2.32256 44.6803V41.5452C2.95503 42.0119 3.7878 42.2392 4.62056 42.2392H9.70147V44.6803ZM47.4394 44.6803C47.4288 46.1162 46.4063 47.2649 45.1414 47.2649H42.3585C41.0935 47.2649 40.071 46.1042 40.0604 44.6803V42.2392H45.1414C45.9741 42.2392 46.8069 42.0119 47.4394 41.5452V44.6803ZM45.1414 39.8461H4.62056C3.36615 39.858 2.3331 38.7213 2.32256 37.2854V27.8563C2.32256 26.5401 2.83908 25.2837 3.72455 24.4341C3.73509 24.4221 3.75617 24.3982 3.76672 24.3862L5.20033 22.8546H45.1203L46.1322 24.0871C46.1428 24.111 46.1744 24.123 46.1849 24.1469C46.9755 24.9965 47.4288 26.1811 47.4288 27.4136V37.2854H47.4394C47.4288 38.7093 46.3958 39.858 45.1414 39.8461Z" fill="#071F41"/>
<path d="M14.1288 27.6411H6.22283C5.64306 27.6411 5.1687 28.1796 5.1687 28.8377V35.0599C5.1687 35.718 5.64306 36.2565 6.22283 36.2565H14.1288C14.7086 36.2565 15.1829 35.718 15.1829 35.0599V28.8377C15.1829 28.1796 14.7086 27.6411 14.1288 27.6411ZM13.0747 33.8633H7.27696V30.0343H13.0747V33.8633Z" fill="#071F41"/>
<path d="M43.5391 27.6411H35.6331C35.0533 27.6411 34.579 28.1796 34.579 28.8377V35.0599C34.579 35.718 35.0533 36.2565 35.6331 36.2565H43.5391C44.1189 36.2565 44.5932 35.718 44.5932 35.0599V28.8377C44.5932 28.1796 44.1189 27.6411 43.5391 27.6411ZM42.485 33.8633H36.6872V30.0343H42.485V33.8633Z" fill="#071F41"/>
<path d="M29.9725 32.6665H19.7895C19.2098 32.6665 18.7354 33.205 18.7354 33.8631C18.7354 34.5212 19.2098 35.0597 19.7895 35.0597H29.9725C30.5522 35.0597 31.0266 34.5212 31.0266 33.8631C31.0266 33.205 30.5522 32.6665 29.9725 32.6665Z" fill="#071F41"/>
<path d="M29.9725 28.957H19.7895C19.2098 28.957 18.7354 29.4955 18.7354 30.1536C18.7354 30.8117 19.2098 31.3502 19.7895 31.3502H29.9725C30.5522 31.3502 31.0266 30.8117 31.0266 30.1536C31.0266 29.4955 30.5522 28.957 29.9725 28.957Z" fill="#071F41"/>
</g>
<defs>
<clipPath id="clip0_11_1293">
<rect width="49.3333" height="56" fill="white" transform="translate(0.214294)"/>
</clipPath>
</defs>
</svg>

<svg width="50" height="56" fill="none" xmlns="http://www.w3.org/2000/svg"><g clip-path="url(#a)"><path d="m47.66 22.436-1.074-1.293-3.774-11.546c-.643-1.95-2.288-3.243-4.122-3.255H11.736c-1.834 0-3.479 1.304-4.122 3.255L3.894 21l-1.55 1.627c-1.35 1.305-2.13 3.22-2.13 5.23V44.68c.01 2.752 1.982 4.978 4.407 4.978h2.782c2.425 0 4.396-2.226 4.407-4.978v-2.44h26.142v2.44c.01 2.752 1.982 4.978 4.407 4.978h2.782c2.425 0 4.396-2.226 4.407-4.978V27.414c-.01-1.879-.686-3.674-1.887-4.978ZM9.597 10.41c.337-1.017 1.191-1.675 2.14-1.675H38.7c.948 0 1.802.67 2.14 1.675l3.288 10.052h-2.456c-.58-4.488-4.258-7.587-8.211-6.917-3.152.527-5.63 3.339-6.093 6.917H6.307l3.29-10.052Zm29.927 10.052H29.498c.58-3.148 3.3-5.158 6.072-4.5 1.982.479 3.531 2.238 3.953 4.5ZM9.7 44.68c-.01 1.436-1.033 2.585-2.298 2.585H4.621c-1.265 0-2.288-1.149-2.298-2.585v-3.135c.632.467 1.465.694 2.298.694H9.7v2.441Zm37.738 0c-.01 1.436-1.033 2.585-2.298 2.585H42.36c-1.266 0-2.288-1.16-2.299-2.585v-2.44h5.081c.833 0 1.666-.228 2.298-.695v3.135Zm-2.298-4.834H4.621c-1.255.012-2.288-1.125-2.298-2.56v-9.43c0-1.316.516-2.572 1.402-3.422l.042-.048L5.2 22.855h39.92l1.012 1.232c.01.024.042.036.053.06.79.85 1.244 2.034 1.244 3.267v9.871h.01c-.01 1.424-1.043 2.573-2.298 2.561Z" fill="#071F41"/><path d="M14.129 27.641H6.223c-.58 0-1.054.539-1.054 1.197v6.222c0 .658.474 1.197 1.054 1.197h7.906c.58 0 1.054-.539 1.054-1.197v-6.222c0-.658-.474-1.197-1.054-1.197Zm-1.054 6.222H7.277v-3.829h5.798v3.83ZM43.54 27.641h-7.907c-.58 0-1.054.539-1.054 1.197v6.222c0 .658.474 1.197 1.054 1.197h7.906c.58 0 1.054-.539 1.054-1.197v-6.222c0-.658-.474-1.197-1.054-1.197Zm-1.055 6.222h-5.798v-3.829h5.798v3.83ZM29.973 32.666H19.79c-.58 0-1.055.539-1.055 1.197s.475 1.197 1.055 1.197h10.183c.58 0 1.054-.539 1.054-1.197s-.475-1.197-1.055-1.197ZM29.973 28.957H19.79c-.58 0-1.055.538-1.055 1.197 0 .658.475 1.196 1.055 1.196h10.183c.58 0 1.054-.538 1.054-1.196 0-.659-.475-1.197-1.055-1.197Z" fill="#071F41"/></g><defs><clipPath id="a"><path fill="#fff" transform="translate(.214)" d="M0 0h49.333v56H0z"/></clipPath></defs></svg>
